src/images/truck.svg

<svg viewBox="0 0 500 103" xmlns="http://www.w3.org/2000/svg" fill-rule="evenodd" clip-rule="evenodd" stroke-linejoin="round" stroke-miterlimit="2"><path d="M272.031.379C315.111 8.431 384.418 21.975 398.2 26.7l3.6 32.5 4.4 5.6.1 21.2-3.2 3.1s1.5-12.1-4.5-12.1c-.196 0-.39.013-.58.039 1.373 1.653 2.432 4.116 2.28 7.761-.196 4.709-2.269 7.349-4.331 8.816 26.302 1.804 54.355 4.302 76.381 6.419A3453.977 3453.977 0 01500 102.8l-500-.1c11.9-.1 39.7-2.3 74.6-3.3 7.2-.2 14.7-3.8 22.4-4 5.3-.1 10.6 3.1 16 2.9 64.141-1.923 139.118-4.34 184.205-5.831a14.773 14.773 0 01-1.753-4.227l-32.751.357-.001.001c-1 .8-18-5.6-17.4-6.2l1.634-21.239c-3.353.199-6.874-.599-10.534-2.361 0 0 .3-15 .7-18 .4-3 4.7-3.4 4.7-3.4l.2-5.2 7.122.509L251 8.3c3.9-2.6 9.8-5.3 19-8.3l2.031.379zm46.197 75.672c2.018 1.879 3.798 4.981 3.572 10.049-.1 2.244-.558 4.083-1.225 5.588 4.666-.158 8.488-.289 11.325-.388 12.047-.404 29.494.205 48.858 1.344-1.181-1.296-2.091-2.688-2.704-4.192-19.235-1.606-36.491-1.836-51.054-.152 0 0-1.607-9.796-8.772-12.249z" fill="#3c134a" fill-rule="nonzero"/><path d="M306.4 18.9l60.8 11c.5 0-2 26.9-2 25.5 0-1.5-60.5-6.4-60.4-6.1.4 1.3 2.6-30 1.6-30.4z" fill="#ffac00" fill-rule="nonzero"/><path d="M380.1 26.9L365.8 47l.2-3.1 11.51-16.402L367.1 29.9l-60.7-11 13.2-2.9 60.5 10.9z" fill="#66277b" fill-rule="nonzero"/><path d="M319.6 16l-19.3 28 .4 2.9 22-30.8-3.1-.1zm151.8 85.1l-2.3-9.5 3 7.3.5-5.8.8 5.5 2.2-3.8-1.6 7.2-2.6-.9z" fill="#3c134a" fill-rule="nonzero"/><path d="M382.543 38.84c-.242 6.096-.666 11.826-1.41 16.915l8.845 1.177a73.144 73.144 0 001.395-16.773l-8.83-1.319zM394.55 40.19c.195 5.983-.176 11.744-1.295 17.214l6.425.791-1.725-17.374-3.405-.631z" fill="#ffab00" fill-rule="nonzero"/></svg>

<?xml version="1.0" encoding="UTF-8" standalone="no"?>
<!DOCTYPE svg PUBLIC "-//W3C//DTD SVG 1.1//EN" "http://www.w3.org/Graphics/SVG/1.1/DTD/svg11.dtd">
<svg width="100%" height="100%" viewBox="0 0 500 103" version="1.1" xmlns="http://www.w3.org/2000/svg" xmlns:xlink="http://www.w3.org/1999/xlink" xml:space="preserve" xmlns:serif="http://www.serif.com/" style="fill-rule:evenodd;clip-rule:evenodd;stroke-linejoin:round;stroke-miterlimit:2;">
    <path d="M272.031,0.379C315.111,8.431 384.418,21.975 398.2,26.7L401.8,59.2L406.2,64.8L406.3,86L403.1,89.1C403.1,89.1 404.6,77 398.6,77C398.404,77 398.21,77.013 398.02,77.039C399.393,78.692 400.452,81.155 400.3,84.8C400.104,89.509 398.031,92.149 395.969,93.616C422.271,95.42 450.324,97.918 472.35,100.035C483.417,101.098 492.963,102.066 500,102.8L-0,102.7C11.9,102.6 39.7,100.4 74.6,99.4C81.8,99.2 89.3,95.6 97,95.4C102.3,95.3 107.6,98.5 113,98.3C177.141,96.377 252.118,93.96 297.205,92.469C296.399,91.141 295.811,89.733 295.452,88.242L262.701,88.599L262.7,88.6C261.7,89.4 244.7,83 245.3,82.4L246.934,61.161C243.581,61.36 240.06,60.562 236.4,58.8C236.4,58.8 236.7,43.8 237.1,40.8C237.5,37.8 241.8,37.4 241.8,37.4L242,32.2L249.122,32.709L251,8.3C254.9,5.7 260.8,3 270,0L272.031,0.379ZM318.228,76.051C320.246,77.93 322.026,81.032 321.8,86.1C321.7,88.344 321.242,90.183 320.575,91.688C325.241,91.53 329.063,91.399 331.9,91.3C343.947,90.896 361.394,91.505 380.758,92.644C379.577,91.348 378.667,89.956 378.054,88.452C358.819,86.846 341.563,86.616 327,88.3C327,88.3 325.393,78.504 318.228,76.051Z" style="fill:rgb(60,19,74);fill-rule:nonzero;"/>
    <path d="M306.4,18.9L367.2,29.9C367.7,29.9 365.2,56.8 365.2,55.4C365.2,53.9 304.7,49 304.8,49.3C305.2,50.6 307.4,19.3 306.4,18.9Z" style="fill:rgb(255,172,0);fill-rule:nonzero;"/>
    <path d="M380.1,26.9L365.8,47L366,43.9L377.51,27.498L367.1,29.9L306.4,18.9L319.6,16L380.1,26.9Z" style="fill:rgb(102,39,123);fill-rule:nonzero;"/>
    <path d="M319.6,16L300.3,44L300.7,46.9L322.7,16.1L319.6,16ZM471.4,101.1L469.1,91.6L472.1,98.9L472.6,93.1L473.4,98.6L475.6,94.8L474,102L471.4,101.1Z" style="fill:rgb(60,19,74);fill-rule:nonzero;"/>
    <g id="Isolation-Mode" serif:id="Isolation Mode" transform="matrix(1,0,0,1,382.134,38.8398)">
        <g transform="matrix(-0.924942,0.380109,0.380109,0.924942,11.1661,15.9682)">
            <path d="M3.88,-18.858C6.421,-13.312 8.991,-8.173 11.613,-3.749L3.88,0.702C0.728,-4.035 -1.826,-9.031 -3.786,-14.282L3.88,-18.858Z" style="fill:rgb(255,171,0);fill-rule:nonzero;"/>
        </g>
        <g transform="matrix(-0.961725,0.274016,0.274016,0.961725,18.6442,18.485)">
            <path d="M1.295,-18.186C2.747,-12.378 4.682,-6.939 7.257,-1.985L1.295,0.536L-1.807,-16.646L1.295,-18.186Z" style="fill:rgb(255,171,0);fill-rule:nonzero;"/>
        </g>
    </g>
</svg>
